styles/locus_style/moiosm_res/s_helipad.svg

<?xml version="1.0" encoding="UTF-8" standalone="no"?>
<svg xmlns="http://www.w3.org/2000/svg" version="1.0" width="580" height="580">
 <metadata id="metadata1976"/>
 <path white-space="normal" isolation="auto" mix-blend-mode="normal" d="m 118,187.2 198,9.2 -0.7,31.9 c -15.2,1.5 -32,13.3 -45.9,19 -66,6.3 -139,10.8 -199,7.1 -4.8,-12.6 -9.4,-25.5 -14.2,-38 -5.4,-9 -25.7,-3.5 -22,5.9 6,12.5 11.9,25.6 18,38 -17.8,16.6 -8,41.5 17.2,42.5 l 13.5,38 c 8.6,9.8 27,2.2 22,-7.2 -5.9,-10.3 -10.7,-21.7 -15.8,-33 60,4 140,38 193,56 52,17.5 88,17.8 117,14.5 29.4,-3.3 52.6,-8.2 61.8,-28 14,-56 -45.6,-94 -90,-102 -11,-5.3 -27,-11.9 -40.9,-12.3 l 0.7,-31.9 202,-10.8 c 3.7,0.6 9,-8.7 12.9,-13.2 2.1,-2.4 0.2,-6 -3,-5.8 l -222,17.9 -214,-19 c -2.8,0.8 -4.1,3.2 -2.05,5.25 3.35,4.65 7.45,15.35 13.45,15.95 z M 53.8,280 c -0.4,-7.2 4.6,-13.8 14.2,-13.9 9.6,-0.1 17.3,14.8 9.2,22.4 -7.4,8.9 -23.6,2.9 -23.4,-8.5 z m 330.4,41.1 c -9.1,-18.4 -18.9,-36 -27.9,-54 39,-1.3 71,15.9 77.9,54.05 -17.3,0.35 -33,0.05 -50,-0.05 z m -83,2 c -0.2,-13.3 -0.6,-40.5 -0.9,-53.9 8.7,-0.1 17.9,-0.1 26.6,-0.3 10.7,17.2 16.6,35.8 23.35,53.95 -15.75,0.05 -34.05,0.35 -49.05,0.25 z m -42.9,65.7 c -19,2.8 -13.9,25.4 0,25.6 l 184,0 c 19,-2.8 13.9,-25.4 0,-25.6 z" id="path4138" solid-color="#000000" opacity="0.8" color-interpolation-filters="linearRGB" filter-gaussianBlur-deviation="0" color="#000000" image-rendering="auto" color-rendering="auto" stroke-width="64" color-interpolation="sRGB" solid-opacity="1" fill="none" stroke-linejoin="round" filter-blend-mode="normal" stroke="#ffffff" shape-rendering="auto"/>
 <path id="path4290" d="m 118,187.2 198,9.2 -0.7,31.9 c -15.2,1.5 -32,13.3 -45.9,19 -66,6.3 -139,10.8 -199,7.1 -4.8,-12.6 -9.4,-25.5 -14.2,-38 -5.4,-9 -25.7,-3.5 -22,5.9 6,12.5 11.9,25.6 18,38 -17.8,16.6 -8,41.5 17.2,42.5 l 13.5,38 c 8.6,9.8 27,2.2 22,-7.2 -5.9,-10.3 -10.7,-21.7 -15.8,-33 60,4 140,38 193,56 52,17.5 88,17.8 117,14.5 29.4,-3.3 52.6,-8.2 61.8,-28 14,-56 -45.6,-94 -90,-102 -11,-5.3 -27,-11.9 -40.9,-12.3 l 0.7,-31.9 202,-10.8 c 3.7,0.6 9,-8.7 12.9,-13.2 2.1,-2.4 0.2,-6 -3,-5.8 l -222,17.9 -214,-19 c -2.8,0.8 -4.1,3.2 -2.05,5.25 3.35,4.65 7.45,15.35 13.45,15.95 z M 53.8,280 c -0.4,-7.2 4.6,-13.8 14.2,-13.9 9.6,-0.1 17.3,14.8 9.2,22.4 -7.4,8.9 -23.6,2.9 -23.4,-8.5 z m 330.4,41.1 c -9.1,-18.4 -18.9,-36 -27.9,-54 39,-1.3 71,15.9 77.9,54.05 -17.3,0.35 -33,0.05 -50,-0.05 z m -83,2 c -0.2,-13.3 -0.6,-40.5 -0.9,-53.9 8.7,-0.1 17.9,-0.1 26.6,-0.3 10.7,17.2 16.6,35.8 23.35,53.95 -15.75,0.05 -34.05,0.35 -49.05,0.25 z m -42.9,65.7 c -19,2.8 -13.9,25.4 0,25.6 l 184,0 c 19,-2.8 13.9,-25.4 0,-25.6 z" mix-blend-mode="normal" isolation="auto" white-space="normal" fill="#0092da" color-rendering="auto" solid-opacity="1" color-interpolation-filters="linearRGB" shape-rendering="auto" image-rendering="auto" color-interpolation="sRGB" color="#000000" solid-color="#000000"/>
</svg>

<?xml version="1.0" encoding="UTF-8" standalone="no"?>
<!DOCTYPE svg PUBLIC "-//W3C//DTD SVG 1.1//EN" "http://www.w3.org/Graphics/SVG/1.1/DTD/svg11.dtd">
<svg width="100%" height="100%" viewBox="0 0 580 580" version="1.1" xmlns="http://www.w3.org/2000/svg" xmlns:xlink="http://www.w3.org/1999/xlink" xml:space="preserve" xmlns:serif="http://www.serif.com/" style="fill-rule:evenodd;clip-rule:evenodd;stroke-linejoin:round;">
    <path id="path4138" d="M118,187.2L316,196.4L315.3,228.3C300.1,229.8 283.3,241.6 269.4,247.3C203.4,253.6 130.4,258.1 70.4,254.4C65.6,241.8 61,228.9 56.2,216.4C50.8,207.4 30.5,212.9 34.2,222.3C40.2,234.8 46.1,247.9 52.2,260.3C34.4,276.9 44.2,301.8 69.4,302.8L82.9,340.8C91.5,350.6 109.9,343 104.9,333.6C99,323.3 94.2,311.9 89.1,300.6C149.1,304.6 229.1,338.6 282.1,356.6C334.1,374.1 370.1,374.4 399.1,371.1C428.5,367.8 451.7,362.9 460.9,343.1C474.9,287.1 415.3,249.1 370.9,241.1C359.9,235.8 343.9,229.2 330,228.8L330.7,196.9L532.7,186.1C536.4,186.7 541.7,177.4 545.6,172.9C547.7,170.5 545.8,166.9 542.6,167.1L320.6,185L106.6,166C103.8,166.8 102.5,169.2 104.55,171.25C107.9,175.9 112,186.6 118,187.2ZM53.8,280C53.4,272.8 58.4,266.2 68,266.1C77.6,266 85.3,280.9 77.2,288.5C69.8,297.4 53.6,291.4 53.8,280ZM384.2,321.1C375.1,302.7 365.3,285.1 356.3,267.1C395.3,265.8 427.3,283 434.2,321.15C416.9,321.5 401.2,321.2 384.2,321.1ZM301.2,323.1C301,309.8 300.6,282.6 300.3,269.2C309,269.1 318.2,269.1 326.9,268.9C337.6,286.1 343.5,304.7 350.25,322.85C334.5,322.9 316.2,323.2 301.2,323.1ZM258.3,388.8C239.3,391.6 244.4,414.2 258.3,414.4L442.3,414.4C461.3,411.6 456.2,389 442.3,388.8L258.3,388.8Z" style="fill:none;fill-rule:nonzero;stroke:white;stroke-opacity:0.8;stroke-width:64px;"/>
    <path id="path4290" d="M118,187.2L316,196.4L315.3,228.3C300.1,229.8 283.3,241.6 269.4,247.3C203.4,253.6 130.4,258.1 70.4,254.4C65.6,241.8 61,228.9 56.2,216.4C50.8,207.4 30.5,212.9 34.2,222.3C40.2,234.8 46.1,247.9 52.2,260.3C34.4,276.9 44.2,301.8 69.4,302.8L82.9,340.8C91.5,350.6 109.9,343 104.9,333.6C99,323.3 94.2,311.9 89.1,300.6C149.1,304.6 229.1,338.6 282.1,356.6C334.1,374.1 370.1,374.4 399.1,371.1C428.5,367.8 451.7,362.9 460.9,343.1C474.9,287.1 415.3,249.1 370.9,241.1C359.9,235.8 343.9,229.2 330,228.8L330.7,196.9L532.7,186.1C536.4,186.7 541.7,177.4 545.6,172.9C547.7,170.5 545.8,166.9 542.6,167.1L320.6,185L106.6,166C103.8,166.8 102.5,169.2 104.55,171.25C107.9,175.9 112,186.6 118,187.2ZM53.8,280C53.4,272.8 58.4,266.2 68,266.1C77.6,266 85.3,280.9 77.2,288.5C69.8,297.4 53.6,291.4 53.8,280ZM384.2,321.1C375.1,302.7 365.3,285.1 356.3,267.1C395.3,265.8 427.3,283 434.2,321.15C416.9,321.5 401.2,321.2 384.2,321.1ZM301.2,323.1C301,309.8 300.6,282.6 300.3,269.2C309,269.1 318.2,269.1 326.9,268.9C337.6,286.1 343.5,304.7 350.25,322.85C334.5,322.9 316.2,323.2 301.2,323.1ZM258.3,388.8C239.3,391.6 244.4,414.2 258.3,414.4L442.3,414.4C461.3,411.6 456.2,389 442.3,388.8L258.3,388.8Z" style="fill:rgb(218,0,145);fill-rule:nonzero;stroke:black;stroke-width:1px;stroke-miterlimit:2;"/>
</svg>
